svgs/materials/action/balance.svg

<svg xmlns="http://www.w3.org/2000/svg" enable-background="new 0 0 24 24" height="24" viewBox="0 0 24 24" width="24"><g><rect fill="none" height="24" width="24"/></g><g><path d="M13,7.83c0.85-0.3,1.53-0.98,1.83-1.83H18l-3,7c0,1.66,1.57,3,3.5,3s3.5-1.34,3.5-3l-3-7h2V4h-6.17 C14.42,2.83,13.31,2,12,2S9.58,2.83,9.17,4L3,4v2h2l-3,7c0,1.66,1.57,3,3.5,3S9,14.66,9,13L6,6h3.17c0.3,0.85,0.98,1.53,1.83,1.83 V19H2v2h20v-2h-9V7.83z M20.37,13h-3.74l1.87-4.36L20.37,13z M7.37,13H3.63L5.5,8.64L7.37,13z M12,6c-0.55,0-1-0.45-1-1 c0-0.55,0.45-1,1-1s1,0.45,1,1C13,5.55,12.55,6,12,6z"/></g></svg>

<?xml version="1.0" encoding="UTF-8" standalone="no"?>
<svg
   enable-background="new 0 0 24 24"
   height="24"
   viewBox="0 0 24 24"
   width="24"
   version="1.1"
   id="svg198"
   sodipodi:docname="balance.svg"
   inkscape:version="1.2 (dc2aeda, 2022-05-15)"
   xmlns:inkscape="http://www.inkscape.org/namespaces/inkscape"
   xmlns:sodipodi="http://sodipodi.sourceforge.net/DTD/sodipodi-0.dtd"
   xmlns="http://www.w3.org/2000/svg"
   xmlns:svg="http://www.w3.org/2000/svg">
  <defs
     id="defs202" />
  <sodipodi:namedview
     id="namedview200"
     pagecolor="#ffffff"
     bordercolor="#000000"
     borderopacity="0.25"
     inkscape:showpageshadow="2"
     inkscape:pageopacity="0.0"
     inkscape:pagecheckerboard="0"
     inkscape:deskcolor="#d1d1d1"
     showgrid="false"
     inkscape:zoom="9.8333333"
     inkscape:cx="12.050847"
     inkscape:cy="12"
     inkscape:window-width="1309"
     inkscape:window-height="456"
     inkscape:window-x="0"
     inkscape:window-y="25"
     inkscape:window-maximized="0"
     inkscape:current-layer="svg198" />
  <path
     d="M 13,7.83 C 13.85,7.53 14.53,6.85 14.83,6 H 18 l -3,7 c 0,1.66 1.57,3 3.5,3 1.93,0 3.5,-1.34 3.5,-3 L 19,6 h 2 V 4 H 14.83 C 14.42,2.83 13.31,2 12,2 10.69,2 9.58,2.83 9.17,4 H 3 v 2 h 2 l -3,7 c 0,1.66 1.57,3 3.5,3 C 7.43,16 9,14.66 9,13 L 6,6 H 9.17 C 9.47,6.85 10.15,7.53 11,7.83 V 19 H 2 v 2 H 22 V 19 H 13 Z M 20.37,13 H 16.63 L 18.5,8.64 Z m -13,0 H 3.63 L 5.5,8.64 Z M 12,6 c -0.55,0 -1,-0.45 -1,-1 0,-0.55 0.45,-1 1,-1 0.55,0 1,0.45 1,1 0,0.55 -0.45,1 -1,1 z"
     id="path194" />
</svg>
